X: 1
T:THE SOOKE PIPE BAND
M:C
L:1/8
Q:80
C:Colin Magee
S:March
K:HP
[| A|
{g}f2ce{g}e/2d3/2{g}G{d}B|
{g}A2{GAG}A3/2{d}B/2{g}A3{GAG}A|
{gf}g2{a}f3/2g/2{ag}a2df|  !
{g}f/2e3/2-e4{A}e3A|
{g}f2ce{g}e/2d3/2{g}G{d}B|
{g}A2{GAG}A3/2{d}B/2{g}A3{GAG}A|  !
{g}B2{GdGe}Bd{g}c/2e/2{g}A{g}f3/2e/2|
{Gdc}d4{gdc}d2|] [|
{g}c3/2d/2|  !
{g}eA{gcd}c2{GdG}A2{Gdc}d3/2e/2|
{g}fA{g}f3/2e/2{Gdc}d4|
{gf}g2{a}f3/2g/2{ag}a2df|  !
{g}f/2e3/2-e4{A}e3A|
{g}f2ce{g}e/2d3/2{g}G{d}B|
{g}A2{GAG}A3/2{d}B/2{g}A3{GAG}A|  !
{g}B2{GdGe}Bd{g}c/2e/2{g}A{g}f3/2e/2|
{Gdc}d4{gdc}d2|]
